X:1
T:Title
%%score { 1 | 2 }
L:1/8
Q:1/4=100
M:4/4
K:Eb
V:1 treble nm="Grand Piano"
V:2 bass 
V:1
 B3 c B2 G2 | G3 A G2 E2 | [DF]3 [DF] [DG]2 [DF]2 | E6 z2 | [GB]3 [Ac] [GB]2 G2 | G3 A G2 E2 | %6
w: J.~M.~Black * * *||||||
 F3 F G2 =A2 | [DB]6 z2 | [FA]3 [FA] [FA]2 [DF]2 | G3 G G2 B2 | [Ec]3 [Ec] B2 =A2 | [DB]6 z2 | %12
w: ||||||
 [EB]3 [EB] [Ge]2 [EGB]2 | [EAc]3 [EAc] [EAc]2 [CEA]2 | [B,EG]4 [A,DF]4 | E6 z2 | E3 F G2 [GB]2 | %17
w: |||||
 [GB]3 [Ac] [GB]2 G2 | E3 F G2 [GB]2 | [EB]2 [EG]2 [DF]4 | E3 F G2 [GB]2 | [GB]3 [Ac] [GB]2 [EG]2 | %22
w: |||||
 [Ge]2 [GB]2 [Ac] [B,GB]3 | [B,EG]2 [A,DF]2 E4 |] %24
w: ||
V:2
 [E,G,E]3 [E,A,E] [E,G,E]2 [E,B,E]2 | [E,B,E]3 [E,CE] [E,B,E]2 [E,G,]2 | %2
 [B,,B,]3 [B,,B,] [B,,B,]2 [B,,A,]2 | [E,G,]6 z2 | [E,E]3 [E,E] [E,E]2 [E,B,E]2 | %5
 [E,B,E]3 [E,CE] [E,B,E]2 [E,G,]2 | [F,B,D]3 [F,B,D] [F,B,E]2 [F,CE]2 | [B,,B,]6 z2 | %8
 [B,,B,]3 [B,,B,] [B,,B,]2 [B,,B,]2 | [E,B,E]3 [E,B,E] [E,B,E]2 [E,G,E]2 | %10
 [C,G,]3 [C,G,] [F,B,D]2 [F,E]2 | [B,,F,]6 z2 | [E,G,]3 [E,G,] [E,B,]2 E,2 | A,3 A, A,2 A,,2 | %14
 B,,4 B,,4 | [E,G,]6 z2 | [E,G,]3 [E,A,E] [E,B,E]2 [E,E]2 | [E,E]3 [E,E] [E,E]2 [E,B,E]2 | %18
 [E,G,]3 [E,A,E] [E,B,E]2 [E,E]2 | [G,B,]2 [E,B,]2 [B,,B,]4 | [E,G,]3 [E,A,E] [E,B,E]2 [E,E]2 | %21
 [E,E]3 [E,E] [E,E]2 [E,B,]2 | [E,B,]2 [E,E]2 [E,E] E,3 | B,,2 B,,2 G,4 |] %24

